X:7
T:Canon in D (Pachelbel)
M:4/4
L:1/4
Q:1/4=60
K:D
F# G A B|A G F# E|D E F# G|F# E D C#|
B, C# D E|D C# B, A,|G, A, B, C#|B, A, G, F#,||

